frontend/public/svg/gender symbols/intersex.svg

<svg width="102" height="147" viewBox="0 0 102 147" fill="none" xmlns="http://www.w3.org/2000/svg">
<g clip-path="url(#clip0)">
<path d="M93.5396 11.852L68.7524 34.6344C70.7069 38.3381 72.6812 41.4924 74.1035 44.8785C79.4159 57.5255 78.7051 70.1067 72.7908 82.329C68.3933 91.4115 60.5525 96.0623 50.9148 98.0214C48.9537 98.4198 46.9769 98.7467 44.7283 99.1576C44.9665 104.836 45.1996 110.381 45.4503 116.301C47.9733 116.111 50.176 115.936 52.3813 115.781C54.2735 115.65 56.1878 115.322 58.0538 115.479C58.9111 115.508 59.7257 115.861 60.3343 116.465C60.9428 117.07 61.3002 117.882 61.3355 118.739C61.4394 119.591 61.239 120.452 60.7695 121.169C60.3 121.887 59.5918 122.416 58.7701 122.662C57.3802 123.08 55.9355 123.29 54.484 123.282C51.7037 123.373 48.9184 123.309 45.9721 123.309C46.1926 127.838 46.4222 131.972 46.5817 136.107C46.6864 137.901 46.672 139.698 46.5384 141.489C46.2818 144.193 44.8071 145.893 42.8525 146.061C40.7359 146.244 38.9198 144.702 38.53 141.774C38.0574 138.219 37.9268 134.615 37.7647 131.027C37.6538 128.59 37.7429 126.144 37.7429 123.271C34.24 123.271 31.2314 123.315 28.226 123.248C27.104 123.25 25.9885 123.078 24.9186 122.741C24.2002 122.545 23.581 122.087 23.1823 121.458C22.7836 120.829 22.6343 120.073 22.7634 119.34C22.9787 117.601 24.1271 116.829 25.7929 116.807C28.938 116.766 32.0839 116.78 35.229 116.753C35.785 116.747 36.3404 116.656 37.3295 116.565C37.5264 111.021 37.7298 105.473 37.9451 99.4969C36.7873 99.3564 35.5086 99.1425 34.2208 99.0525C16.4919 97.8167 5.52717 86.6937 2.04136 70.2144C-0.336333 58.9741 1.5339 48.5509 7.65229 38.9452C9.28913 36.5308 11.3092 34.3995 13.6324 32.6356C19.6401 27.8763 26.8304 24.8432 34.4317 23.8613C44.9383 22.4042 54.6995 24.255 63.799 29.7026L87.9312 7.49289C86.4597 7.49289 85.3879 7.47044 84.3174 7.49735C81.6264 7.56298 78.9302 7.66793 76.2366 7.73357C74.6266 7.77295 73.182 7.33979 73.1196 5.46201C73.0658 3.85333 74.2452 3.14461 75.7555 2.96805C76.4243 2.88864 77.0859 2.74991 77.7553 2.67706C83.3342 2.06667 88.9026 1.34338 94.492 0.899694C99.1283 0.532145 100.241 1.64814 100.561 6.35999C100.82 10.1667 101.012 13.9794 101.211 17.7908C101.275 18.5729 101.259 19.3591 101.166 20.1383C101.067 21.0965 100.62 21.9852 99.91 22.6358C99.1999 23.2863 98.2757 23.6536 97.3122 23.6677C96.4052 23.5901 95.5539 23.1951 94.9087 22.5524C94.2642 21.9098 93.8658 21.0606 93.7851 20.1536C93.7339 19.2632 93.7766 18.3698 93.9118 17.4883C94.043 15.7161 94.196 13.944 94.339 12.1719L93.5396 11.852ZM37.8893 31.214C28.8233 31.8434 25.6321 32.7952 20.2691 36.0513C16.486 38.295 13.4019 41.547 11.3615 45.4435C5.94604 55.7113 6.82158 66.0454 11.0064 76.3288C14.4252 84.7299 20.7962 89.8441 29.7053 91.6701C38.0592 93.3818 46.2555 92.5312 54.2392 89.7214C56.5515 88.9705 58.6875 87.7583 60.5183 86.1588C62.3489 84.5586 63.8363 82.6041 64.8902 80.4132C71.1631 67.144 70.7509 54.1598 62.4414 41.7852C60.5021 38.7212 57.7119 36.2889 54.4118 34.786C48.6787 32.3195 42.6681 31.107 37.8893 31.2127V31.214Z" fill="black"/>
</g>
<defs>
<clipPath id="clip0">
<rect width="101.076" height="145.707" fill="white" transform="translate(0.700684 0.78418)"/>
</clipPath>
</defs>
</svg>

<svg xmlns="http://www.w3.org/2000/svg" width="102" height="147" fill="none" viewBox="0 0 102 147"><g clip-path="url(#a)"><path fill="#000" d="M93.54 11.852 68.752 34.634c1.955 3.704 3.93 6.858 5.352 10.245 5.312 12.647 4.601 25.228-1.313 37.45-4.398 9.083-12.238 13.733-21.876 15.692-1.961.399-3.938.726-6.187 1.137l.722 17.143c2.523-.19 4.726-.365 6.931-.52 1.892-.131 3.807-.459 5.673-.302a3.4 3.4 0 0 1 3.282 3.26 3.63 3.63 0 0 1-2.566 3.923c-1.39.418-2.835.628-4.286.62-2.78.091-5.566.027-8.512.027.22 4.529.45 8.663.61 12.798.104 1.794.09 3.591-.044 5.382-.256 2.704-1.73 4.404-3.685 4.572-2.117.183-3.933-1.359-4.323-4.287-.473-3.555-.603-7.159-.765-10.747-.111-2.437-.022-4.883-.022-7.756-3.503 0-6.512.044-9.517-.023a11 11 0 0 1-3.307-.507 2.987 2.987 0 0 1-2.156-3.401c.216-1.739 1.364-2.511 3.03-2.533 3.145-.041 6.29-.027 9.436-.054.556-.006 1.111-.097 2.1-.188.197-5.544.4-11.092.616-17.068-1.158-.14-2.436-.355-3.724-.445C16.49 97.818 5.527 86.694 2.04 70.214q-3.566-16.86 5.611-31.269a26.8 26.8 0 0 1 5.98-6.31 42.2 42.2 0 0 1 20.8-8.774c10.506-1.457 20.268.394 29.367 5.842L87.93 7.493c-1.471 0-2.543-.023-3.614.004-2.69.066-5.387.17-8.08.237-1.61.039-3.055-.394-3.117-2.272-.054-1.609 1.125-2.317 2.635-2.494.67-.08 1.33-.218 2-.29C83.335 2.066 88.903 1.342 94.492.9c4.636-.368 5.749.748 6.069 5.46.259 3.807.451 7.62.65 11.43.064.783.048 1.57-.045 2.348a3.936 3.936 0 0 1-3.854 3.53 3.874 3.874 0 0 1-3.527-3.514 12.8 12.8 0 0 1 .127-2.666c.131-1.772.284-3.544.427-5.316zM37.89 31.214c-9.067.63-12.258 1.581-17.62 4.837a23.7 23.7 0 0 0-8.908 9.392c-5.416 10.268-4.54 20.602-.356 30.886 3.42 8.4 9.79 13.515 18.7 15.341 8.353 1.712 16.55.861 24.533-1.949a18 18 0 0 0 10.651-9.308c6.273-13.269 5.86-26.253-2.449-38.628a18.65 18.65 0 0 0-8.03-6.999c-5.732-2.467-11.743-3.679-16.522-3.573z"/></g><defs><clipPath id="a"><path fill="#fff" d="M.7.784h101.077v145.707H.7z"/></clipPath></defs></svg>
